X:1
T:Düben, 87.87 D
T:Düben, 87.87 D
T:Gustaf Düben, 1674
T:Public Domain Courtesy of the Cyber Hymnal™
C:Gustaf Düben, 1674
Z:Public Domain
Z:Courtesy of the Cyber Hymnal™
%%score ( 1 2 ) ( 3 4 )
L:1/8
Q:1/4=110
M:2/4
K:G
V:1 treble 
V:2 treble 
V:3 bass 
V:4 bass 
V:1
 [B,D]2 [EG]2 | [^DF]2 [EG]2 | [FA]2 [Ad]2 | [GB]2 !fermata!G2 | [GB]2 [Ad]2 | [EG]2 [^DF]2 | %6
 E2 [DG]2 | [FA]4 | [B,D]2 [EG]2 | [^DF]2 [EG]2 | [FA]2 [Ad]2 | [GB]2 !fermata!G2 | [GB]2 [Ad]2 | %13
 [EG]2 [^DF]2 | E2 [DG]2 | [FA]4 | [FA]2 [EA]2 | [Gd]2 [Gc]2 | [GB]2 G2 | [Gc]2 !fermata![Ec]2 | %20
 [EB]2 [CA]2 | [E^G]2 [EA]2 | [=FA]2 [E^G]2 | [EA]4 | [Dd]2 [DG]2 | [DF]2 [DG]2 | E2 [DG]2 | %27
 [FA]2 !fermata![DA]2 | [DB]2 [EG]2 | [Ec]2 [EB]2 | [EA]2 [DA]2 | [B,G]4 |] %32
V:2
 x4 | x4 | x4 | x2 G2 | x4 | x4 | E2 x2 | x4 | x4 | x4 | x4 | x2 G2 | x4 | x4 | E2 x2 | x4 | x4 | %17
 x4 | x2 G2 | x4 | x4 | x4 | x4 | x4 | x4 | x4 | E2 x2 | x4 | x4 | x4 | x4 | x4 |] %32
V:3
 G,2 [E,B,]2 | [B,,B,]2 [E,B,]2 | [D,D]2 [F,D]2 | [G,D]2 !fermata![G,B,]2 | [G,D]2 [F,A,]2 | %5
 [E,B,]2 [B,,B,]2 | [C,G,]2 [G,,B,]2 | [D,A,]4 | G,2 [E,B,]2 | [B,,B,]2 [E,B,]2 | [D,D]2 [F,D]2 | %11
 [G,D]2 !fermata![G,B,]2 | [G,D]2 [F,A,]2 | [E,B,]2 [B,,B,]2 | [C,G,]2 [G,,B,]2 | [D,A,]4 | %16
 [D,A,]2 [C,E]2 | [B,,D]2 [C,E]2 | [G,,D]2 [G,B,]2 | [E,G,]2 !fermata![C,G,]2 | [E,^G,]2 [=F,A,]2 | %21
 [E,B,]2 [C,C]2 | [D,B,]2 [E,B,]2 | [A,C]4 | [F,A,]2 [G,B,]2 | [D,A,]2 [B,,G,]2 | %26
 [C,G,]2 [G,,B,]2 | [D,A,]2 !fermata![D,F,]2 | G,2 [E,B,]2 | [A,,A,]2 [E,G,]2 | [C,G,]2 [D,F,]2 | %31
 [G,,G,]4 |] %32
V:4
 G,2 x2 | x4 | x4 | x4 | x4 | x4 | x4 | x4 | G,2 x2 | x4 | x4 | x4 | x4 | x4 | x4 | x4 | x4 | x4 | %18
 x4 | x4 | x4 | x4 | x4 | x4 | x4 | x4 | x4 | x4 | G,2 x2 | x4 | x4 | x4 |] %32

